packages/web-icons/svgs/mail_2.svg

<svg viewBox="0 0 48 38" xmlns="http://www.w3.org/2000/svg" class="ridi_icon"><path d="M22.4 23.5c.9.7 2.2.7 3.1 0L48 5.7v-.3C48 2.9 45.9.8 43.4.8H4.6C2.1.8 0 2.8 0 5.4v.3l22.4 17.8z"/><path d="M26.5 26.3c-1.4 1.1-3.5 1.1-4.9 0L0 9.2v23.5c0 2.5 2.1 4.6 4.6 4.6h38.8c2.5 0 4.6-2.1 4.6-4.6V9.2L26.5 26.3z"/></svg>

<?xml version="1.0" encoding="UTF-8"?>
<svg width="48px" height="38px" viewBox="0 0 48 38" version="1.1" xmlns="http://www.w3.org/2000/svg">
  <!-- Generator: Sketch 41.2 (35397) - http://www.bohemiancoding.com/sketch -->
  <title>mail_2</title>
  <desc>Created with Sketch.</desc>
  <defs></defs>
  <g id="Page-1" stroke="none" stroke-width="1" fill="none" fill-rule="evenodd">
    <g id="mail_2" fill="#000000">
      <g id="레이어_1">
        <path d="M22.4,23.5 C23.3,24.2 24.6,24.2 25.5,23.5 L48,5.7 L48,5.4 C48,2.9 45.9,0.8 43.4,0.8 L4.6,0.8 C2.1,0.8 0,2.8 0,5.4 L0,5.7 L22.4,23.5 Z" id="Shape"></path>
        <path d="M26.5,26.3 C25.1,27.4 23,27.4 21.6,26.3 L0,9.2 L0,32.7 C0,35.2 2.1,37.3 4.6,37.3 L43.4,37.3 C45.9,37.3 48,35.2 48,32.7 L48,9.2 L26.5,26.3 Z" id="Shape"></path>
      </g>
    </g>
  </g>
</svg>
